docs/img/icons/logos_figma.svg

<svg width="16" height="24" fill="none" xmlns="http://www.w3.org/2000/svg"><path d="M4 24c2.208 0 4-1.792 4-4v-4H4c-2.208 0-4 1.792-4 4s1.792 4 4 4z" fill="#0ACF83"/><path d="M0 12c0-2.208 1.792-4 4-4h4v8H4c-2.208 0-4-1.792-4-4z" fill="#A259FF"/><path d="M0 4c0-2.208 1.792-4 4-4h4v8H4C1.792 8 0 6.208 0 4z" fill="#F24E1E"/><path d="M8 0h4c2.208 0 4 1.792 4 4s-1.792 4-4 4H8V0z" fill="#FF7262"/><path d="M16 12c0 2.208-1.792 4-4 4s-4-1.792-4-4 1.792-4 4-4 4 1.792 4 4z" fill="#1ABCFE"/></svg>

<svg width="16" height="24" viewBox="0 0 16 24" fill="none" xmlns="http://www.w3.org/2000/svg">
<path d="M4 24C6.208 24 8 22.208 8 20V16H4C1.792 16 0 17.792 0 20C0 22.208 1.792 24 4 24Z" fill="#0ACF83"/>
<path d="M0 12C0 9.792 1.792 8 4 8H8V16H4C1.792 16 0 14.208 0 12Z" fill="#A259FF"/>
<path d="M0 4C0 1.792 1.792 0 4 0H8V8H4C1.792 8 0 6.208 0 4Z" fill="#F24E1E"/>
<path d="M8 0H12C14.208 0 16 1.792 16 4C16 6.208 14.208 8 12 8H8V0Z" fill="#FF7262"/>
<path d="M16 12C16 14.208 14.208 16 12 16C9.792 16 8 14.208 8 12C8 9.792 9.792 8 12 8C14.208 8 16 9.792 16 12Z" fill="#1ABCFE"/>
</svg>
